packages/ui-icons/src/Service-logos/24/Megogo.svg

<svg viewBox="0 0 32 32" fill="none" xmlns="http://www.w3.org/2000/svg">
<path d="M16 28C22.6274 28 28 22.6274 28 16C28 9.37258 22.6274 4 16 4C9.37258 4 4 9.37258 4 16C4 22.6274 9.37258 28 16 28Z" fill="black"/>
<path fill-rule="evenodd" clip-rule="evenodd" d="M9.86327 12.4778C9.88675 12.4778 9.90596 12.1453 9.90596 11.7389C9.90596 11.3325 9.889 11.0001 9.86834 11.0002C9.84767 11.0003 9.46016 11.1772 9.0073 11.3934L8.18387 11.7863L8.35526 11.8573C8.4495 11.8964 8.81781 12.052 9.17362 12.2031C9.52948 12.3542 9.83985 12.4778 9.86327 12.4778ZM15.6364 13.1502C15.5605 13.1122 14.3683 12.6129 12.987 12.0405C11.6057 11.4682 10.4597 11 10.4404 11C10.421 11 10.4114 11.39 10.4189 11.8665L10.4326 12.7331L10.7335 12.857C10.8991 12.9251 12.0884 13.4219 13.3765 13.9609C14.6645 14.4999 15.731 14.9409 15.7464 14.9409C15.7617 14.9409 15.7743 14.5535 15.7743 14.0801V13.2193L15.6364 13.1502ZM21.5925 12.7083V11.8541C21.5925 11.2012 21.5777 11.0011 21.5298 11.0047C21.4953 11.0072 20.2878 11.5001 18.8464 12.0999L16.2257 13.1903V14.0656C16.2257 14.547 16.2357 14.9409 16.2479 14.9409C16.2692 14.9409 21.1707 12.8974 21.4545 12.7702L21.5925 12.7083ZM23.7492 11.7847C23.7492 11.7678 23.405 11.5928 22.9843 11.3958C22.5637 11.1988 22.1912 11.0269 22.1567 11.0136C22.1083 10.9949 22.094 11.1583 22.094 11.7336C22.094 12.143 22.1089 12.4778 22.127 12.4778C22.1959 12.4778 23.7492 11.8141 23.7492 11.7847ZM9.88088 13.0123L9.17868 12.716C8.79248 12.553 8.36925 12.3776 8.23824 12.3263L8 12.233V16.444V20.6551L8.95077 19.83L9.90154 19.0049L9.89121 16.0086L9.88088 13.0123ZM16.0603 21H15.8572C10.9647 20.9997 8.34838 20.983 8.37999 20.9519C8.40687 20.9255 8.83461 20.5494 9.33046 20.1161L10.232 19.3284L16 19.3293L21.768 19.3302L22.6708 20.1226C23.1674 20.5583 23.5812 20.934 23.5904 20.9574C23.5997 20.9811 20.2889 20.9997 16.0603 21ZM24 20.6643V16.4479C24 14.1289 23.9831 12.2336 23.9624 12.2361C23.9417 12.2386 23.5185 12.4127 23.0219 12.6229L22.1191 13.0051L22.1055 16.005L22.0919 19.0049L22.2115 19.1035C22.3472 19.2153 23.3395 20.079 23.7367 20.4309L24 20.6643ZM15.9943 15.532C15.9474 15.532 14.7333 15.0412 13.2963 14.4414C11.8592 13.8416 10.6213 13.3201 10.5455 13.2825L10.4075 13.2142V16.0234V18.8325H16H21.5925V16.0229C21.5925 13.3628 21.5878 13.2157 21.5047 13.2583C21.2161 13.4062 16.0642 15.532 15.9943 15.532Z" fill="#5CC0B1"/>
</svg>

<svg viewBox="0 0 32 32" fill="none" xmlns="http://www.w3.org/2000/svg"><path d="M16 28c6.627 0 12-5.373 12-12S22.627 4 16 4 4 9.373 4 16s5.373 12 12 12Z" fill="#000"/><path fill-rule="evenodd" clip-rule="evenodd" d="M9.863 12.478c.024 0 .043-.333.043-.74 0-.405-.017-.738-.038-.738-.02 0-.408.177-.86.393l-.824.393.171.071.819.346c.355.151.666.275.69.275Zm5.773.672c-.075-.038-1.268-.537-2.649-1.11A144.42 144.42 0 0 0 10.44 11c-.019 0-.029.39-.021.867l.014.866.3.124c.166.068 1.355.565 2.643 1.104 1.289.539 2.355.98 2.37.98.016 0 .028-.388.028-.86v-.862l-.138-.069Zm5.957-.442v-.854c0-.653-.015-.853-.063-.85-.035.003-1.242.496-2.684 1.096l-2.62 1.09v.876c0 .481.01.875.022.875.021 0 4.923-2.044 5.206-2.17l.139-.063Zm2.156-.923c0-.017-.344-.192-.765-.39-.42-.196-.793-.368-.827-.381-.049-.02-.063.144-.063.72 0 .409.015.744.033.744.069 0 1.622-.664 1.622-.693ZM9.881 13.012l-.702-.296c-.387-.163-.81-.338-.94-.39L8 12.233v8.422l.95-.825.952-.825-.01-2.996-.011-2.997ZM16.06 21h-.204c-4.892 0-7.509-.017-7.477-.048.027-.027.455-.403.95-.836l.902-.788L16 19.33l5.768.001.903.793c.496.435.91.811.92.834.009.024-3.302.043-7.53.043ZM24 20.664v-4.216c0-2.32-.017-4.214-.038-4.212-.02.003-.444.177-.94.387l-.903.382-.014 3-.013 3 .12.099c.135.111 1.128.975 1.525 1.327l.263.233Zm-8.006-5.132c-.047 0-1.26-.49-2.698-1.09-1.437-.6-2.675-1.122-2.75-1.16l-.138-.068v5.618H21.593v-2.81c0-2.66-.005-2.806-.088-2.764-.289.148-5.44 2.274-5.51 2.274Z" fill="#5CC0B1"/></svg>
